X:1
T:Title
%%score { ( 1 3 5 ) | ( 2 4 ) }
L:1/8
M:4/4
K:Ab
V:1 treble nm="Grand Piano"
V:3 treble 
V:5 treble 
V:2 bass 
V:4 bass 
V:1
 z4 z2[Q:1/4=100] C>[B,D] | [DF]>[CE] [CE]>[_C=D] [=CE]2 A>B | A4 z4 | d4 z4 | A6 z2 | %5
[M:3/4] [DF]>[CE] [CE]>[_C=D] [=CE]2 |[M:1/4] A>B |[M:4/4] A4 z4 | d4 z4 |[M:3/4] A6 | %10
[M:1/4] [EA]>[EG] |[M:4/4] [EG]>F F>=E F2 [EG]>[DF] | [DF]>[CE] [CE]>[_C=D] [=CE]2 A>c | %13
 B>B [Ac]>[A=d] [Ge]2 [=DF]>[DG] | E6 z2 |[M:3/4] [DF]>[CE] [CE]>[_C=D] [=CE]2 |[M:1/4] A>B | %17
[M:4/4] A4 z4 | d4 z4 |[M:3/4] A6 |] %20
V:2
 z4 z2 [A,,A,]>[A,,A,] | [A,,A,]>[A,,A,] [A,,A,]>[A,,A,] [A,,A,]2 z2 | z2 [E,C]>[E,C] [E,B,E]2 z2 | %3
 z2 [G,B,]>[G,B,] A,2 E,>E, | A,6 z2 |[M:3/4] [A,,A,]>[A,,A,] [A,,A,]>[A,,A,] [A,,A,]2 | %6
[M:1/4] z2 |[M:4/4] z2 [E,C]>[E,C] [E,B,E]2 z2 | z2 [G,B,]>[G,B,] [A,E]2 [E,D]>[E,D] | %9
[M:3/4] [A,C]2 [A,D]2 [A,C]2 |[M:1/4] [C,A,]>[C,A,] | %11
[M:4/4] [D,A,]>[D,A,D] [D,A,D]>[D,G,D] [D,A,D]2 [D,A,]>[D,A,] | %12
 [A,,A,]>[A,,A,] [A,,A,]>[A,,A,] [A,,A,]2 [A,CE]>[A,E] | %13
 [G,B,E]>[G,B,E] [F,B,]>[F,B,] [E,B,]2 [B,,A,]>[B,,A,] | [E,G,]2 F,2 G,2 A,>[A,B,] | %15
[M:3/4] [A,,A,]>[A,,A,] [A,,A,]>[A,,A,] [A,,A,]2 |[M:1/4] z2 |[M:4/4] z2 [E,C]>[E,C] [E,B,E]2 z2 | %18
 z2 [G,B,]>[G,B,] [A,E]2 [E,CE]>[E,D] |[M:3/4] C2 D2 C2 |] %20
V:3
 x8 | x8 | z2 E>E G2 B>c | z2 E>E [Ec]2 [DGB]>[DGc] | C2 F2 E2 C>[B,D] |[M:3/4] x6 |[M:1/4] x2 | %7
[M:4/4] z2 E>E G2 B>c | z2 E>E c2 [GB]>[Gc] |[M:3/4] z2 F2 E2 |[M:1/4] x2 |[M:4/4] x8 | x8 | x8 | %14
 z2 A,2 z z/ D/ C>D |[M:3/4] x6 |[M:1/4] x2 |[M:4/4] z2 E>E G2 B>c | z2 E>E c2 A>[GB] | %19
[M:3/4] z2 F2 E2 |] %20
V:4
 x8 | x8 | x8 | x8 | z2 D2 C2 [A,,A,]>[A,,A,] |[M:3/4] x6 |[M:1/4] x2 |[M:4/4] x8 | x8 | %9
[M:3/4] x6 |[M:1/4] x2 |[M:4/4] x8 | x8 | x8 | x8 |[M:3/4] x6 |[M:1/4] x2 |[M:4/4] x8 | x8 | %19
[M:3/4] A,6 |] %20
V:5
 x8 | x8 | x8 | x8 | x8 |[M:3/4] x6 |[M:1/4] x2 |[M:4/4] x8 | x8 |[M:3/4] x6 |[M:1/4] x2 | %11
[M:4/4] x8 | x8 | x8 | z4 B,2 z2 |[M:3/4] x6 |[M:1/4] x2 |[M:4/4] x8 | x8 |[M:3/4] x6 |] %20

